svg/700/sharp/dns-fill.svg

<svg xmlns="http://www.w3.org/2000/svg" width="48" height="48" viewBox="0 -960 960 960"><path d="M287.118-647Q308-647 322.5-661.618q14.5-14.617 14.5-35.5Q337-718 322.382-732.5q-14.617-14.5-35.5-14.5Q266-747 251.5-732.382q-14.5 14.617-14.5 35.5Q237-676 251.618-661.5q14.617 14.5 35.5 14.5Zm0 465Q308-182 322.5-196.618q14.5-14.617 14.5-35.5Q337-253 322.382-267.5q-14.617-14.5-35.5-14.5Q266-282 251.5-267.382q-14.5 14.617-14.5 35.5Q237-211 251.618-196.5q14.617 14.5 35.5 14.5ZM95-499v-396h771v396H95Zm0 465v-397h771v397H95Z"/></svg>

<svg xmlns="http://www.w3.org/2000/svg" width="48" height="48" viewBox="0 -960 960 960"><path d="M287.12-647q20.88 0 35.38-14.62 14.5-14.62 14.5-35.5 0-20.88-14.62-35.38-14.62-14.5-35.5-14.5-20.88 0-35.38 14.62-14.5 14.62-14.5 35.5 0 20.88 14.62 35.38 14.62 14.5 35.5 14.5Zm0 465q20.88 0 35.38-14.62 14.5-14.62 14.5-35.5 0-20.88-14.62-35.38-14.62-14.5-35.5-14.5-20.88 0-35.38 14.62-14.5 14.62-14.5 35.5 0 20.88 14.62 35.38 14.62 14.5 35.5 14.5ZM95-499v-396h771v396H95Zm0 465v-397h771v397H95Z"/></svg>
